!!!ONB: MCCC : IJB0064_04 : Extracted Monophonic Melody
!!!COM: Bach, Johann Sebastian
!!!OPR: Cello Suite No.2
!!!OMV: 4
!!!SCT: BWV 1008
!!!ODT: 1717///
**kern
*thru
*staff1
*IP1
*clefF4
*k[b-]
*d:
*M3/4
*>A
=1-
8.D
16E
4.E
16D
16E
=2
4.F
8E
8D
8C
=3
8BB-
8G
8F
16E
16F
16G
16A
16B-
16D
=4
4.C#
8BB
8AA
8GG
=5
8.D
16E
4.E
16D
16E
=6
4.F
8D
8E
8F
=7
8G
16B-
16A
16c
16B-
16A
16G
8d
8F
=8
4.E
8D
8C
8BB-
=9
8F
16G
16A
4.A
16G
16F
=10
8G
16A
16B-
4.B-
16c
16d
=11
8E
8F
8CC
8GG
8F
8E
=12
4F
2FF
=13
*>A
8.D
16E
4.E
16D
16E
=2
4.F
8E
8D
8C
=3
8BB-
8G
8F
16E
16F
16G
16A
16B-
16D
=4
4.C#
8BB
8AA
8GG
=5
8.D
16E
4.E
16D
16E
=6
4.F
8D
8E
8F
=7
8G
16B-
16A
16c
16B-
16A
16G
8d
8F
=8
4.E
8D
8C
8BB-
=9
8F
16G
16A
4.A
16G
16F
=10
8G
16A
16B-
4.B-
16c
16d
=11
8E
8F
8CC
8GG
8F
8E
=12
4F
2FF
=13
*>B
4A
4.A
8B-
=14
8c
16B-
16A
8.F#
16E-
8D
8C
=15
8BB-
8G
8AA
8F#
8e-
8d
=16
4.B-
8A
8G
8F
=17
8E
8BB-
8AA
8F
8G
8A
=18
8D
8AA-
8GG
8E-
8F
8G
=19
8C#
8B-
8A
16G
16F
8E
16F
16D
=20
8C#
16E
16A
8.AA
16G
8F
8E
=21
8D
16E
16F
4.F
16E
16D
=22
8E
16F
16G
4.G
16A
16B-
=23
8A
16c#
16d
8D
16E
32F
32G
8F
16E
16D
=24
4D
16DD
16AA
16BB
16C#
16D
16E
16F
16G
=25
16A
16B
16c
16B
4.c
16B
16A
=26
16B
16c#
16d
16c#
4.d
16e
16f
=27
16d
16c#
16d
16F
8AA
8E
8d
8c#
=28
4d
2DD
=29
*>B
4A
4.A
8B-
=14
8c
16B-
16A
8.F#
16E-
8D
8C
=15
8BB-
8G
8AA
8F#
8e-
8d
=16
4.B-
8A
8G
8F
=17
8E
8BB-
8AA
8F
8G
8A
=18
8D
8AA-
8GG
8E-
8F
8G
=19
8C#
8B-
8A
16G
16F
8E
16F
16D
=20
8C#
16E
16A
8.AA
16G
8F
8E
=21
8D
16E
16F
4.F
16E
16D
=22
8E
16F
16G
4.G
16A
16B-
=23
8A
16c#
16d
8D
16E
32F
32G
8F
16E
16D
=24
4D
16DD
16AA
16BB
16C#
16D
16E
16F
16G
=25
16A
16B
16c
16B
4.c
16B
16A
=26
16B
16c#
16d
16c#
4.d
16e
16f
=27
16d
16c#
16d
16F
8AA
8E
8d
8c#
=28
4d
2DD
==
*-
